X: 43
T: JIG: Henry Blogg
C: C: Andy Cutting; S: Leveret
C: Set Leaders: Sophie, Anton
Z: [Unedited]; Bregolas at The Session
N: https://thesession.org/members/26966/sets/92009
R: Jig
M: 6/8
L: 1/8
Q: 3/8=116
K: Dmaj
|:F2A GFE|FGA d2e|fdA B2A|B2A GFE|
F2A GFE|FGA d2e|fdA B2A|1 GFE D2E:|2 GFE DFA||
|:B2B BAG|A2A AGF|E2E EDE|F2D DEF|
GFG BAG|FAD B2A|1 G2F EFG|A2F FGA:|2 G2F EFE|DFE D2||

